docs/local/img/block11/score.svg

<svg width="114" height="137" viewBox="0 0 114 137" fill="none" xmlns="http://www.w3.org/2000/svg">
<path d="M16.4589 66.6375H39.1189V58.9375H8.75894L6.66894 101.727H14.6989V99.9675C15.4689 94.3575 18.6589 91.7175 23.3889 91.7175C29.5489 91.7175 32.4089 95.8975 32.4089 102.827V117.787C32.4089 124.717 29.5489 128.897 23.3889 128.897C17.2289 128.897 14.3689 124.717 14.3689 117.787V112.067H6.33894V117.237C6.33894 129.007 11.8389 136.708 23.6089 136.708C35.3789 136.708 40.9889 129.007 40.9889 117.237V102.167C40.9889 91.1675 36.5889 83.9075 26.6889 83.9075C21.5189 83.9075 17.6689 86.1075 15.2489 90.2875L16.4589 66.6375ZM53.608 83.3575V94.0275H61.858V83.3575H53.608ZM53.608 125.267V135.938H61.858V125.267H53.608ZM112.488 120.427V112.617H106.328V58.9375H96.9781L73.1081 112.617V120.427H97.9681V135.938H106.328V120.427H112.488ZM97.9681 74.9975V112.617H81.0281L97.9681 74.9975Z" fill="#D73B3B"/>
<path d="M40.29 9.31289C35.4164 1.69699 28.7729 0.9375 28.7729 0.9375C28.7729 0.9375 29.8914 1.96222 30.3923 2.46552C30.6996 2.7669 31.0069 3.09236 31.3142 3.40881C33.9107 6.16042 35.6162 8.71611 36.6825 11.4496C37.675 13.9903 37.9331 16.329 37.4722 18.6014C37.2802 19.5775 36.9361 20.5188 36.452 21.3922L26.6527 11.4195L31.2927 6.89882H28.5271C27.0583 6.89882 25.5372 6.89882 24.0438 6.89882C23.6946 6.92783 23.3676 7.07856 23.1219 7.32374C21.6839 8.57749 20.298 9.80114 19.1272 10.8349C18.4942 11.3954 17.8612 11.962 17.2497 12.5075L15.9376 13.6799L20.1597 17.9143L20.7466 17.3718C20.848 17.2814 20.9525 17.185 21.0539 17.0885L21.7269 16.4285C22.3691 15.8016 23.0328 15.1567 23.6781 14.5057C25.6509 16.7158 27.6278 18.9259 29.6087 21.1361L32.0332 23.8485L33.0688 25.0178L33.0872 25.0389L33.0503 25.0631C31.6357 26.0121 29.9833 26.5634 28.2721 26.6574C26.3361 26.7448 24.7813 26.2836 23.5245 25.2529C22.9099 24.7526 22.3291 24.1891 21.7607 23.6436C21.4718 23.3663 21.183 23.089 20.888 22.8148C20.7528 22.6912 20.6483 22.5857 20.5807 22.5134C19.9661 21.9106 19.6404 21.9106 18.9244 22.3024C18.8199 22.3596 18.697 22.426 18.5403 22.5043C18.2109 22.712 17.8216 22.8093 17.431 22.7816C17.2486 22.7404 17.0589 22.7421 16.8773 22.7867C16.6957 22.8312 16.5274 22.9173 16.3862 23.0378C16.2503 23.1703 16.1485 23.3325 16.0892 23.5112C16.0299 23.6899 16.0148 23.8799 16.0451 24.0655C16.0451 24.177 16.0452 24.2493 15.7717 24.5025C15.1246 25.1179 14.3603 25.6022 13.5223 25.928C12.2897 26.3961 11.2325 27.2227 10.4925 28.2969C9.87793 29.1558 9.83798 30.1051 10.3757 30.8224C10.6802 31.2048 11.1058 31.477 11.5854 31.5959C12.065 31.7149 12.5713 31.6739 13.0245 31.4795C14.0478 31.0575 15.3292 30.3975 16.1865 29.0081C16.7087 28.2076 17.2879 27.4442 17.9196 26.7237C17.9647 26.6716 18.0207 26.6295 18.0838 26.6004C18.1469 26.5713 18.2156 26.5558 18.2853 26.5549C18.5294 26.5462 18.767 26.633 18.9459 26.796C19.1641 27.0009 19.3823 27.2058 19.5974 27.4138C20.4266 28.2478 21.3295 29.0082 22.2953 29.6862C24.5877 31.1871 26.9436 31.9375 29.3629 31.9375C31.4736 31.9064 33.5461 31.3804 35.4072 30.4035C35.9142 30.1504 36.3936 29.849 36.8607 29.5596L37.0481 29.4421L38.8089 31.3951L42.7698 27.8297L42.3212 27.3656L41.808 26.8291C41.4239 26.4253 41.0582 26.0456 40.6802 25.6688C41.8214 23.9728 42.5664 22.0503 42.862 20.039C43.3629 16.3742 42.4994 12.7667 40.29 9.31289Z" fill="#D73B3B"/>
<path d="M102.614 25.7929L112 18.6795L108.732 18.0095L110.346 11.8584L104.822 13.0715L104.441 10.0609L99.8967 14.4115L101.215 4.49418L97.518 6.08508L95.0015 0.9375L92.482 6.08508L88.7881 4.49418L90.1033 14.4115L85.5615 10.0609L85.1781 13.0715L79.6567 11.8584L81.2715 18.0095L78 18.6795L87.386 25.7929L85.6874 29.3909L94.63 26.6606L94.2945 30.9375H95.0015H95.7055L95.373 26.6606L104.313 29.3909L102.614 25.7929Z" fill="#D73B3B"/>
</svg>

<svg width="114" height="137" viewBox="0 0 114 137" fill="none" xmlns="http://www.w3.org/2000/svg"><path d="M16.459 66.638h22.66v-7.7H8.759l-2.09 42.789h8.03v-1.76c.77-5.61 3.96-8.25 8.69-8.25 6.16 0 9.02 4.18 9.02 11.11v14.96c0 6.93-2.86 11.11-9.02 11.11s-9.02-4.18-9.02-11.11v-5.72h-8.03v5.17c0 11.77 5.5 19.471 17.27 19.471s17.38-7.701 17.38-19.471v-15.07c0-11-4.4-18.26-14.3-18.26-5.17 0-9.02 2.2-11.44 6.38l1.21-23.65zm37.149 16.72v10.67h8.25v-10.67h-8.25zm0 41.909v10.671h8.25v-10.671h-8.25zm58.88-4.84v-7.81h-6.16v-53.68h-9.35l-23.87 53.68v7.81h24.86v15.511h8.36v-15.511h6.16zm-14.52-45.43v37.62h-16.94l16.94-37.62zM40.29 9.313C35.416 1.697 28.773.937 28.773.937s1.118 1.025 1.62 1.529c.307.3.614.626.921.943 2.597 2.751 4.302 5.307 5.368 8.04.993 2.541 1.251 4.88.79 7.152a9.564 9.564 0 01-1.02 2.791l-9.8-9.973 4.64-4.52h-7.247c-.35.029-.676.18-.922.425a842.367 842.367 0 00-3.995 3.51c-.633.561-1.266 1.128-1.877 1.674l-1.312 1.172 4.222 4.234.587-.542c.101-.09.206-.187.307-.284l.673-.66c.642-.626 1.306-1.271 1.951-1.922 1.973 2.21 3.95 4.42 5.93 6.63l2.425 2.713 1.036 1.169.018.02-.037.025a9.516 9.516 0 01-4.778 1.594c-1.936.088-3.49-.373-4.747-1.404-.615-.5-1.196-1.064-1.764-1.61-.29-.277-.578-.554-.873-.828a5.644 5.644 0 01-.307-.302c-.615-.602-.94-.602-1.657-.21-.104.057-.227.123-.384.201a1.84 1.84 0 01-1.109.278 1.207 1.207 0 00-1.045.256 1.18 1.18 0 00-.34 1.027c0 .112 0 .184-.274.438a6.881 6.881 0 01-2.25 1.425 6.46 6.46 0 00-3.03 2.369c-.614.859-.654 1.808-.116 2.525.304.383.73.655 1.21.774.479.119.985.078 1.438-.116 1.024-.422 2.305-1.082 3.162-2.472.523-.8 1.102-1.564 1.734-2.284a.487.487 0 01.365-.17.932.932 0 01.66.242c.22.205.437.41.652.618a20.08 20.08 0 002.698 2.272c2.293 1.501 4.649 2.252 7.068 2.252a13.435 13.435 0 006.044-1.534c.507-.254.987-.555 1.454-.844l.187-.118 1.76 1.953 3.962-3.565-.449-.464-.513-.537a60.09 60.09 0 00-1.128-1.16 13.635 13.635 0 002.182-5.63c.5-3.665-.363-7.272-2.572-10.726zm62.324 16.48L112 18.68l-3.268-.67 1.614-6.152-5.524 1.213-.381-3.01-4.544 4.35 1.318-9.917-3.697 1.591L95.001.938l-2.519 5.147-3.694-1.59 1.315 9.916-4.541-4.35-.384 3.01-5.521-1.213 1.615 6.151-3.272.67 9.386 7.114-1.699 3.598 8.943-2.73-.335 4.276h1.41l-.332-4.276 8.94 2.73-1.699-3.598z" fill="#D73B3B"/></svg>
